X:1
T:James Gibb editions
T:Adoramus te Christe - Ravanello
T:#
%%score { 1 | 2 } 3
L:1/8
Q:1/4=69
M:4/4
K:D
V:1 treble nm="Soprano I" snm="S"
V:2 treble 
V:3 treble nm="Alto" snm="A"
V:1
"^Adoramus te Christe, op.66/6""^Oreste Ravanello\n (1871-1938)""^adagio"!pp! B6 B2 | %1
w: A- do-|
 c4"^," d2 d2 | e8 | f2 z2 z4 | z2 B2 c2 d2 |[M:4/4] e3 e"^," d2 (g2- | g2 f4 e2) |!>(! f8!>)! | %8
w: ra- mus te|Chri-|ste,|et be- ne-|di- ci- mus ti\-||bi:|
!f! c4"^," c2 c2 | d2 d2 e2 d2 | (d2 c2)"^," d2!p! d2- | d2 c2 B2"^," c2 | ^A2 B2 e4- | %13
w: qui- a per|san- ctam cru- cem|tu\- * am re\-|* de- mi- sti,|re- de- mi\-|
 e2"^," d2!>(! c4!>)! | !fermata!^d8 |] %15
w: * sti mun-|dum.|
V:2
!pp! B6 B2 | (B2 ^A2)"^," B2 d2- | d2 (cB c4) | d2 z2 z4 | z4 z2 A2 |[M:4/4] B2 c2 d3 d | %6
w: A- do-|ra\- * mus te|* Chri\- * *|ste,|et|be- ne- di- ci-|
"^," d2 (dc B4) |!>(! ^A8!>)! |!f! ^A4"^," A2 A2 | B2 B2 B2 =A2 | (G2 AG)"^," F2!p! B2- | %11
w: mus ti\- * *|bi:|qui- a per|san- ctam cru- cem|tu\- * * am re\-|
 B2 A2 G2"^," G2 | F3 B (^AB c2- | cF)"^," B2!>(! (B2 ^A2)!>)! | !fermata!B8 |] %15
w: * de- mi- sti,|re- de- mi\- * *|* * sti mun\- *|dum.|
V:3
 z2!pp! B4 B2 | F4"^," B,2 B2 | =A8 |"^," D2 D2 E2 F2 | B4 A2"^," F2 |[M:4/4] (G2 A2 B4- | %6
w: A- do-|ra- mus te|Chri-|ste, et be- ne-|di- ci- mus|ti\- * *|
 B3 A G4) |!>(! F8!>)! |!f! F4"^," F2 F2 | B2 G2 G2 F2 | E4 B,4 | z4!p! E4- | E2 D2 (CB, ^A,2) | %13
w: |bi:|qui- a per|san- ctam cru- cem|tu- am|re\-|* de- mi\- * *|
"^," B,4!>(! !^!F4!>)! | !fermata![B,F]8 |] %15
w: sti mun-|dum.|

